X: 4
T:The Centenary March
M:4/4
L:1/8
Q:120
C:Traditional
K:D
DF |:A2 A3/2B/ AFED |f2 f2 edBd |1A2 A3/2B/ AF ED |
E2 E3/2F/ E2 DF :|2A2 d3/2e/ fe dc |d2 d3/2c/ d2 Ad ||f3 a Ad fa |
g2 f2 e2 f3/2g/ |af dA FA GF |E2 E3/2F/ E2 F3/2G/ |AD FA dF Ad |
f3/2a/ gf ed cB |Aa ga ge ce |d2 d3/2c/ d2 DF ||
